X:3
T:Tivoli Hornpipe (Craig 3)
M:2/4
L:1/16
B:Empire Violin Collection of Hornpipes
H:Published by Thomas Craig
H:Music Publisher, &c.
H:George Street, Aberdeen, N.B.
Z:Peter Dunk December 2011
R:hornpipe
Q:1/4=70
K:A
E2 | A2A2 A2(GA)| BAGA FAEc | defg a2(gf) | ecdB cABG |!
A2A2 A2(GA)| BAGA FAEc | defg a2(gf) | ecdB A2 :|!
|: z2 | A,2A2C2A2 | A,2AB cBcA | E2e2G2e2 | E2(ef) gedB |!
A,2A2C2A2 | A,2AB cBcA | E2e2G2e2 | (3gfe (3dcB A2 :|

